TileServer und Tiles/svg/9/32_7.svg

<?xml version='1.0' encoding='UTF-8' standalone='no'?>
<svg xmlns="http://www.w3.org/2000/svg" width="497pt" viewBox="0 0 497 279" xmlns:xlink="http://www.w3.org/1999/xlink" height="279pt">
 <defs style="stroke:none;" overflow="visible">
  <path id="glyph0-8" d="M 3.40625 -5.453125 C 4.0625 -5.453125 4.585938 -5.222656 4.984375 -4.765625 C 5.390625 -4.304688 5.59375 -3.613281 5.59375 -2.6875 C 5.59375 -1.769531 5.390625 -1.078125 4.984375 -0.609375 C 4.585938 -0.140625 4.054688 0.09375 3.390625 0.09375 C 2.972656 0.09375 2.628906 0.015625 2.359375 -0.140625 C 2.085938 -0.296875 1.878906 -0.476562 1.734375 -0.6875 L 1.671875 -0.6875 C 1.679688 -0.570312 1.691406 -0.425781 1.703125 -0.25 C 1.722656 -0.0703125 1.734375 0.078125 1.734375 0.203125 L 1.734375 2.40625 L 0.84375 2.40625 L 0.84375 -5.359375 L 1.5625 -5.359375 L 1.6875 -4.625 L 1.734375 -4.625 C 1.890625 -4.863281 2.097656 -5.0625 2.359375 -5.21875 C 2.617188 -5.375 2.96875 -5.453125 3.40625 -5.453125 Z M 3.234375 -4.71875 C 2.691406 -4.71875 2.304688 -4.5625 2.078125 -4.25 C 1.859375 -3.945312 1.742188 -3.484375 1.734375 -2.859375 L 1.734375 -2.6875 C 1.734375 -2.03125 1.835938 -1.519531 2.046875 -1.15625 C 2.265625 -0.800781 2.671875 -0.625 3.265625 -0.625 C 3.585938 -0.625 3.851562 -0.710938 4.0625 -0.890625 C 4.269531 -1.078125 4.425781 -1.320312 4.53125 -1.625 C 4.632812 -1.9375 4.6875 -2.296875 4.6875 -2.703125 C 4.6875 -3.316406 4.566406 -3.804688 4.328125 -4.171875 C 4.097656 -4.535156 3.734375 -4.71875 3.234375 -4.71875 Z M 3.234375 -4.71875 "/>
  <path id="glyph0-7" d="M 4.125 -5.359375 L 4.125 -4.625 L 1.734375 -4.625 L 1.734375 0 L 0.84375 0 L 0.84375 -5.359375 Z M 4.125 -5.359375 "/>
  <path id="glyph0-6" d="M 5.515625 -2.6875 C 5.515625 -1.800781 5.285156 -1.113281 4.828125 -0.625 C 4.378906 -0.144531 3.773438 0.09375 3.015625 0.09375 C 2.535156 0.09375 2.109375 -0.0078125 1.734375 -0.21875 C 1.367188 -0.4375 1.078125 -0.753906 0.859375 -1.171875 C 0.648438 -1.585938 0.546875 -2.09375 0.546875 -2.6875 C 0.546875 -3.570312 0.769531 -4.253906 1.21875 -4.734375 C 1.664062 -5.210938 2.273438 -5.453125 3.046875 -5.453125 C 3.523438 -5.453125 3.945312 -5.34375 4.3125 -5.125 C 4.6875 -4.914062 4.976562 -4.601562 5.1875 -4.1875 C 5.40625 -3.78125 5.515625 -3.28125 5.515625 -2.6875 Z M 1.453125 -2.6875 C 1.453125 -2.050781 1.578125 -1.546875 1.828125 -1.171875 C 2.078125 -0.804688 2.476562 -0.625 3.03125 -0.625 C 3.570312 -0.625 3.96875 -0.804688 4.21875 -1.171875 C 4.46875 -1.546875 4.59375 -2.050781 4.59375 -2.6875 C 4.59375 -3.320312 4.46875 -3.816406 4.21875 -4.171875 C 3.96875 -4.535156 3.566406 -4.71875 3.015625 -4.71875 C 2.472656 -4.71875 2.078125 -4.535156 1.828125 -4.171875 C 1.578125 -3.816406 1.453125 -3.320312 1.453125 -2.6875 Z M 1.453125 -2.6875 "/>
  <path id="glyph0-5" d="M 2.125 -2.734375 L 0.265625 -5.359375 L 1.265625 -5.359375 L 2.65625 -3.34375 L 4.015625 -5.359375 L 5.015625 -5.359375 L 3.15625 -2.734375 L 5.109375 0 L 4.109375 0 L 2.65625 -2.140625 L 1.171875 0 L 0.1875 0 Z M 2.125 -2.734375 "/>
  <path id="glyph0-4" d="M 1.734375 -5.359375 L 1.734375 -3.125 L 4.640625 -3.125 L 4.640625 -5.359375 L 5.515625 -5.359375 L 5.515625 0 L 4.640625 0 L 4.640625 -2.390625 L 1.734375 -2.390625 L 1.734375 0 L 0.84375 0 L 0.84375 -5.359375 Z M 1.734375 -5.359375 "/>
  <path id="glyph0-3" d="M 1.1875 0 L 0.15625 0 L 1.6875 -2.25 C 1.476562 -2.300781 1.273438 -2.382812 1.078125 -2.5 C 0.890625 -2.625 0.734375 -2.789062 0.609375 -3 C 0.492188 -3.207031 0.4375 -3.46875 0.4375 -3.78125 C 0.4375 -4.289062 0.609375 -4.679688 0.953125 -4.953125 C 1.304688 -5.222656 1.769531 -5.359375 2.34375 -5.359375 L 4.734375 -5.359375 L 4.734375 0 L 3.859375 0 L 3.859375 -2.125 L 2.5625 -2.125 Z M 1.296875 -3.765625 C 1.296875 -3.460938 1.410156 -3.234375 1.640625 -3.078125 C 1.867188 -2.929688 2.1875 -2.859375 2.59375 -2.859375 L 3.859375 -2.859375 L 3.859375 -4.625 L 2.4375 -4.625 C 2.019531 -4.625 1.722656 -4.546875 1.546875 -4.390625 C 1.378906 -4.234375 1.296875 -4.023438 1.296875 -3.765625 Z M 1.296875 -3.765625 "/>
  <path id="glyph0-2" d="M 2.875 -5.453125 C 3.53125 -5.453125 4.015625 -5.304688 4.328125 -5.015625 C 4.640625 -4.734375 4.796875 -4.28125 4.796875 -3.65625 L 4.796875 0 L 4.15625 0 L 3.984375 -0.765625 L 3.953125 -0.765625 C 3.710938 -0.460938 3.460938 -0.242188 3.203125 -0.109375 C 2.953125 0.0234375 2.601562 0.09375 2.15625 0.09375 C 1.664062 0.09375 1.257812 -0.03125 0.9375 -0.28125 C 0.613281 -0.539062 0.453125 -0.941406 0.453125 -1.484375 C 0.453125 -2.023438 0.660156 -2.4375 1.078125 -2.71875 C 1.503906 -3.007812 2.15625 -3.171875 3.03125 -3.203125 L 3.9375 -3.234375 L 3.9375 -3.546875 C 3.9375 -3.992188 3.835938 -4.300781 3.640625 -4.46875 C 3.453125 -4.644531 3.179688 -4.734375 2.828125 -4.734375 C 2.546875 -4.734375 2.28125 -4.691406 2.03125 -4.609375 C 1.78125 -4.523438 1.539062 -4.429688 1.3125 -4.328125 L 1.046875 -4.984375 C 1.285156 -5.117188 1.5625 -5.226562 1.875 -5.3125 C 2.195312 -5.40625 2.53125 -5.453125 2.875 -5.453125 Z M 3.9375 -2.625 L 3.140625 -2.59375 C 2.472656 -2.5625 2.007812 -2.453125 1.75 -2.265625 C 1.5 -2.078125 1.375 -1.816406 1.375 -1.484375 C 1.375 -1.179688 1.460938 -0.957031 1.640625 -0.8125 C 1.828125 -0.675781 2.0625 -0.609375 2.34375 -0.609375 C 2.800781 -0.609375 3.179688 -0.734375 3.484375 -0.984375 C 3.785156 -1.234375 3.9375 -1.617188 3.9375 -2.140625 Z M 3.9375 -2.625 "/>
  <path id="glyph0-1" d="M 0.96875 0 L 0.96875 -7.140625 L 5.203125 -7.140625 L 5.203125 -6.34375 L 1.875 -6.34375 L 1.875 -4.125 L 2.9375 -4.125 C 3.644531 -4.125 4.195312 -4.035156 4.59375 -3.859375 C 4.988281 -3.679688 5.257812 -3.441406 5.40625 -3.140625 C 5.5625 -2.835938 5.640625 -2.488281 5.640625 -2.09375 C 5.640625 -1.4375 5.441406 -0.921875 5.046875 -0.546875 C 4.648438 -0.179688 3.988281 0 3.0625 0 Z M 1.875 -0.765625 L 2.96875 -0.765625 C 3.613281 -0.765625 4.0625 -0.875 4.3125 -1.09375 C 4.570312 -1.3125 4.703125 -1.644531 4.703125 -2.09375 C 4.703125 -2.550781 4.554688 -2.875 4.265625 -3.0625 C 3.984375 -3.25 3.5 -3.34375 2.8125 -3.34375 L 1.875 -3.34375 Z M 1.875 -0.765625 "/>
  <path id="glyph0-0" d="M 0.9375 0 L 0.9375 -7.140625 L 5.046875 -7.140625 L 5.046875 0 Z M 1.453125 -0.515625 L 4.546875 -0.515625 L 4.546875 -6.625 L 1.453125 -6.625 Z M 1.453125 -0.515625 "/>
 </defs>
 <image width="497" xlink:href="svg/9/32_7.jpg" height="279"/>
 <g>
  <path d="M 344.441406 248.351562 L 344.441406 241.210938 L 348.675781 241.210938 L 348.675781 242.007812 L 345.347656 242.007812 L 345.347656 244.226562 L 346.410156 244.226562 C 347.117188 244.226562 347.667969 244.316406 348.066406 244.492188 C 348.460938 244.671875 348.730469 244.910156 348.878906 245.210938 C 349.035156 245.515625 349.113281 245.863281 349.113281 246.257812 C 349.113281 246.914062 348.914062 247.429688 348.519531 247.804688 C 348.121094 248.171875 347.460938 248.351562 346.535156 248.351562 Z M 345.347656 247.585938 L 346.441406 247.585938 C 347.085938 247.585938 347.535156 247.476562 347.785156 247.257812 C 348.042969 247.039062 348.175781 246.707031 348.175781 246.257812 C 348.175781 245.800781 348.027344 245.476562 347.738281 245.289062 C 347.457031 245.101562 346.972656 245.007812 346.285156 245.007812 L 345.347656 245.007812 Z M 345.347656 247.585938 " transform=" rotate(  340 372.302 245.353) " style="fill:none;stroke-width:3;stroke-linecap:butt;stroke-linejoin:round;stroke:rgb(100%,100%,100%);stroke-opacity:0.6;stroke-miterlimit:10;"/>
  <path d="M 352.496094 242.898438 C 353.152344 242.898438 353.636719 243.046875 353.949219 243.335938 C 354.261719 243.617188 354.417969 244.070312 354.417969 244.695312 L 354.417969 248.351562 L 353.777344 248.351562 L 353.605469 247.585938 L 353.574219 247.585938 C 353.332031 247.890625 353.082031 248.109375 352.824219 248.242188 C 352.574219 248.375 352.222656 248.445312 351.777344 248.445312 C 351.285156 248.445312 350.878906 248.320312 350.558594 248.070312 C 350.234375 247.8125 350.074219 247.410156 350.074219 246.867188 C 350.074219 246.328125 350.28125 245.914062 350.699219 245.632812 C 351.125 245.34375 351.777344 245.179688 352.652344 245.148438 L 353.558594 245.117188 L 353.558594 244.804688 C 353.558594 244.359375 353.457031 244.050781 353.261719 243.882812 C 353.074219 243.707031 352.800781 243.617188 352.449219 243.617188 C 352.167969 243.617188 351.902344 243.660156 351.652344 243.742188 C 351.402344 243.828125 351.160156 243.921875 350.933594 244.023438 L 350.667969 243.367188 C 350.90625 243.234375 351.183594 243.125 351.496094 243.039062 C 351.816406 242.945312 352.152344 242.898438 352.496094 242.898438 Z M 353.558594 245.726562 L 352.761719 245.757812 C 352.09375 245.789062 351.628906 245.898438 351.371094 246.085938 C 351.121094 246.273438 350.996094 246.535156 350.996094 246.867188 C 350.996094 247.171875 351.082031 247.394531 351.261719 247.539062 C 351.449219 247.675781 351.683594 247.742188 351.964844 247.742188 C 352.421875 247.742188 352.800781 247.617188 353.105469 247.367188 C 353.40625 247.117188 353.558594 246.734375 353.558594 246.210938 Z M 353.558594 245.726562 " transform=" rotate(  340 372.302 245.353) " style="fill:none;stroke-width:3;stroke-linecap:butt;stroke-linejoin:round;stroke:rgb(100%,100%,100%);stroke-opacity:0.6;stroke-miterlimit:10;"/>
  <path d="M 356.417969 248.351562 L 355.386719 248.351562 L 356.917969 246.101562 C 356.707031 246.050781 356.503906 245.96875 356.308594 245.851562 C 356.121094 245.726562 355.964844 245.5625 355.839844 245.351562 C 355.722656 245.144531 355.667969 244.882812 355.667969 244.570312 C 355.667969 244.0625 355.839844 243.671875 356.183594 243.398438 C 356.535156 243.128906 357 242.992188 357.574219 242.992188 L 359.964844 242.992188 L 359.964844 248.351562 L 359.089844 248.351562 L 359.089844 246.226562 L 357.792969 246.226562 Z M 356.527344 244.585938 C 356.527344 244.890625 356.640625 245.117188 356.871094 245.273438 C 357.097656 245.421875 357.417969 245.492188 357.824219 245.492188 L 359.089844 245.492188 L 359.089844 243.726562 L 357.667969 243.726562 C 357.25 243.726562 356.953125 243.804688 356.777344 243.960938 C 356.609375 244.117188 356.527344 244.328125 356.527344 244.585938 Z M 356.527344 244.585938 " transform=" rotate(  340 372.302 245.353) " style="fill:none;stroke-width:3;stroke-linecap:butt;stroke-linejoin:round;stroke:rgb(100%,100%,100%);stroke-opacity:0.6;stroke-miterlimit:10;"/>
  <path d="M 362.554688 242.992188 L 362.554688 245.226562 L 365.460938 245.226562 L 365.460938 242.992188 L 366.335938 242.992188 L 366.335938 248.351562 L 365.460938 248.351562 L 365.460938 245.960938 L 362.554688 245.960938 L 362.554688 248.351562 L 361.664062 248.351562 L 361.664062 242.992188 Z M 362.554688 242.992188 " transform=" rotate(  340 372.302 245.353) " style="fill:none;stroke-width:3;stroke-linecap:butt;stroke-linejoin:round;stroke:rgb(100%,100%,100%);stroke-opacity:0.6;stroke-miterlimit:10;"/>
  <path d="M 369.316406 245.617188 L 367.457031 242.992188 L 368.457031 242.992188 L 369.847656 245.007812 L 371.207031 242.992188 L 372.207031 242.992188 L 370.347656 245.617188 L 372.300781 248.351562 L 371.300781 248.351562 L 369.847656 246.210938 L 368.363281 248.351562 L 367.378906 248.351562 Z M 369.316406 245.617188 " transform=" rotate(  340 372.302 245.353) " style="fill:none;stroke-width:3;stroke-linecap:butt;stroke-linejoin:round;stroke:rgb(100%,100%,100%);stroke-opacity:0.6;stroke-miterlimit:10;"/>
  <path d="M 377.796875 245.664062 C 377.796875 246.550781 377.566406 247.238281 377.109375 247.726562 C 376.660156 248.207031 376.054688 248.445312 375.296875 248.445312 C 374.816406 248.445312 374.390625 248.34375 374.015625 248.132812 C 373.648438 247.914062 373.359375 247.597656 373.140625 247.179688 C 372.929688 246.765625 372.828125 246.257812 372.828125 245.664062 C 372.828125 244.78125 373.050781 244.097656 373.5 243.617188 C 373.945312 243.140625 374.554688 242.898438 375.328125 242.898438 C 375.804688 242.898438 376.226562 243.007812 376.59375 243.226562 C 376.96875 243.4375 377.257812 243.75 377.46875 244.164062 C 377.6875 244.570312 377.796875 245.070312 377.796875 245.664062 Z M 373.734375 245.664062 C 373.734375 246.300781 373.859375 246.804688 374.109375 247.179688 C 374.359375 247.546875 374.757812 247.726562 375.3125 247.726562 C 375.851562 247.726562 376.25 247.546875 376.5 247.179688 C 376.75 246.804688 376.875 246.300781 376.875 245.664062 C 376.875 245.03125 376.75 244.535156 376.5 244.179688 C 376.25 243.816406 375.847656 243.632812 375.296875 243.632812 C 374.753906 243.632812 374.359375 243.816406 374.109375 244.179688 C 373.859375 244.535156 373.734375 245.03125 373.734375 245.664062 Z M 373.734375 245.664062 " transform=" rotate(  340 372.302 245.353) " style="fill:none;stroke-width:3;stroke-linecap:butt;stroke-linejoin:round;stroke:rgb(100%,100%,100%);stroke-opacity:0.6;stroke-miterlimit:10;"/>
  <path d="M 380.066406 242.992188 L 380.066406 245.226562 L 382.972656 245.226562 L 382.972656 242.992188 L 383.847656 242.992188 L 383.847656 248.351562 L 382.972656 248.351562 L 382.972656 245.960938 L 380.066406 245.960938 L 380.066406 248.351562 L 379.175781 248.351562 L 379.175781 242.992188 Z M 380.066406 242.992188 " transform=" rotate(  340 372.302 245.353) " style="fill:none;stroke-width:3;stroke-linecap:butt;stroke-linejoin:round;stroke:rgb(100%,100%,100%);stroke-opacity:0.6;stroke-miterlimit:10;"/>
  <path d="M 388.828125 242.992188 L 388.828125 243.726562 L 386.4375 243.726562 L 386.4375 248.351562 L 385.546875 248.351562 L 385.546875 242.992188 Z M 388.828125 242.992188 " transform=" rotate(  340 372.302 245.353) " style="fill:none;stroke-width:3;stroke-linecap:butt;stroke-linejoin:round;stroke:rgb(100%,100%,100%);stroke-opacity:0.6;stroke-miterlimit:10;"/>
  <path d="M 394.449219 245.664062 C 394.449219 246.550781 394.21875 247.238281 393.761719 247.726562 C 393.3125 248.207031 392.707031 248.445312 391.949219 248.445312 C 391.46875 248.445312 391.042969 248.34375 390.667969 248.132812 C 390.300781 247.914062 390.011719 247.597656 389.792969 247.179688 C 389.582031 246.765625 389.480469 246.257812 389.480469 245.664062 C 389.480469 244.78125 389.703125 244.097656 390.152344 243.617188 C 390.597656 243.140625 391.207031 242.898438 391.980469 242.898438 C 392.457031 242.898438 392.878906 243.007812 393.246094 243.226562 C 393.621094 243.4375 393.910156 243.75 394.121094 244.164062 C 394.339844 244.570312 394.449219 245.070312 394.449219 245.664062 Z M 390.386719 245.664062 C 390.386719 246.300781 390.511719 246.804688 390.761719 247.179688 C 391.011719 247.546875 391.410156 247.726562 391.964844 247.726562 C 392.503906 247.726562 392.902344 247.546875 393.152344 247.179688 C 393.402344 246.804688 393.527344 246.300781 393.527344 245.664062 C 393.527344 245.03125 393.402344 244.535156 393.152344 244.179688 C 392.902344 243.816406 392.5 243.632812 391.949219 243.632812 C 391.40625 243.632812 391.011719 243.816406 390.761719 244.179688 C 390.511719 244.535156 390.386719 245.03125 390.386719 245.664062 Z M 390.386719 245.664062 " transform=" rotate(  340 372.302 245.353) " style="fill:none;stroke-width:3;stroke-linecap:butt;stroke-linejoin:round;stroke:rgb(100%,100%,100%);stroke-opacity:0.6;stroke-miterlimit:10;"/>
  <path d="M 398.386719 242.898438 C 399.042969 242.898438 399.566406 243.128906 399.964844 243.585938 C 400.371094 244.046875 400.574219 244.738281 400.574219 245.664062 C 400.574219 246.582031 400.371094 247.273438 399.964844 247.742188 C 399.566406 248.210938 399.035156 248.445312 398.371094 248.445312 C 397.953125 248.445312 397.609375 248.367188 397.339844 248.210938 C 397.066406 248.054688 396.859375 247.875 396.714844 247.664062 L 396.652344 247.664062 C 396.660156 247.78125 396.671875 247.925781 396.683594 248.101562 C 396.703125 248.28125 396.714844 248.429688 396.714844 248.554688 L 396.714844 250.757812 L 395.824219 250.757812 L 395.824219 242.992188 L 396.542969 242.992188 L 396.667969 243.726562 L 396.714844 243.726562 C 396.871094 243.488281 397.078125 243.289062 397.339844 243.132812 C 397.597656 242.976562 397.949219 242.898438 398.386719 242.898438 Z M 398.214844 243.632812 C 397.671875 243.632812 397.285156 243.789062 397.058594 244.101562 C 396.839844 244.40625 396.722656 244.867188 396.714844 245.492188 L 396.714844 245.664062 C 396.714844 246.320312 396.816406 246.832031 397.027344 247.195312 C 397.246094 247.550781 397.652344 247.726562 398.246094 247.726562 C 398.566406 247.726562 398.832031 247.640625 399.042969 247.460938 C 399.25 247.273438 399.40625 247.03125 399.511719 246.726562 C 399.613281 246.414062 399.667969 246.054688 399.667969 245.648438 C 399.667969 245.035156 399.546875 244.546875 399.308594 244.179688 C 399.078125 243.816406 398.714844 243.632812 398.214844 243.632812 Z M 398.214844 243.632812 " transform=" rotate(  340 372.302 245.353) " style="fill:none;stroke-width:3;stroke-linecap:butt;stroke-linejoin:round;stroke:rgb(100%,100%,100%);stroke-opacity:0.6;stroke-miterlimit:10;"/>
  <g transform=" rotate(  340 372.302 245.353) " style="fill:rgb(13.333333%,13.333333%,13.333333%);fill-opacity:1;">
   <use xlink:href="#glyph0-1" y="248.353069" x="343.471724"/>
   <use xlink:href="#glyph0-2" y="248.353069" x="349.621724"/>
   <use xlink:href="#glyph0-3" y="248.353069" x="355.231724"/>
   <use xlink:href="#glyph0-4" y="248.353069" x="360.821724"/>
   <use xlink:href="#glyph0-5" y="248.353069" x="367.191724"/>
   <use xlink:href="#glyph0-6" y="248.353069" x="372.281724"/>
   <use xlink:href="#glyph0-4" y="248.353069" x="378.331724"/>
   <use xlink:href="#glyph0-7" y="248.353069" x="384.701724"/>
   <use xlink:href="#glyph0-6" y="248.353069" x="388.931724"/>
   <use xlink:href="#glyph0-8" y="248.353069" x="394.981724"/>
  </g>
 </g>
</svg>

<svg xmlns="http://www.w3.org/2000/svg" xmlns:xlink="http://www.w3.org/1999/xlink" viewBox="0 0 497 279"> <defs overflow="visible" style="stroke:none">  <path id="h" d="M3.4-5.5c.7 0 1.2.3 1.6.7.4.5.6 1.2.6 2.1 0 1-.2 1.7-.6 2-.4.7-1 .9-1.6.9-.4-.2-.8-.2-1-.3l-.7-.6v3.1H.8v-7.8h.8v.8h.2c.2-.4.3-.5.6-.6.2-.2.6-.3 1-.3Zm-.2.8c-.5 0-.9.1-1.1.5-.2.2-.4.7-.4 1.2v.3c0 .7.1 1.2.3 1.5.3.4.7.6 1.3.6.3 0 .6-.1.7-.4l.5-.6.2-1.1c0-.6-.1-1.1-.4-1.5-.2-.3-.6-.5-1-.5Zm0 0"/>  <path id="g" d="M4.1-5.4v.8H1.7V0H.8v-5.4Zm0 0"/>  <path id="f" d="M5.5-2.7c0 .9-.2 1.7-.7 2-.4.7-1 .9-1.8.9-.5-.2-.9-.2-1.3-.4-.3-.2-.6-.6-.7-1C.6-1.6.5-2 .5-2.7c0-.9.3-1.6.7-2 .5-.5 1-.8 1.8-.8.5 0 1 .2 1.3.5.4 0 .7.4.9.9.2.2.3.7.3 1.3Zm-4 0c0 .7 0 1.2.3 1.5.3.4.7.6 1.2.6.6 0 1-.2 1.2-.6.3-.3.4-.8.4-1.5s-.1-1.1-.4-1.5c-.2-.3-.6-.5-1.2-.5-.5 0-1 .2-1.2.5-.2.4-.3.9-.3 1.5Zm0 0"/>  <path id="e" d="M2.1-2.7.3-5.4h1l1.4 2L4-5.3h1L3.2-2.7l2 2.7H4.1L2.6-2.1 1.2 0h-1Zm0 0"/>  <path id="d" d="M1.7-5.4V-3h3v-2.4h.7V0h-.8v-2.4H1.7V0H.8v-5.4Zm0 0"/>  <path id="c" d="M1.2 0h-1l1.5-2.3c-.2 0-.4 0-.7-.2A1.5 1.5 0 0 1 .6-3l-.2-.8c0-.5.2-.9.6-1.2.3-.2.8-.4 1.3-.4h2.4V0H4v-2.1H2.6Zm.1-3.8c0 .3.1.6.3.8.4.1.6.1 1 .1h1.3v-1.7H2.4c-.4 0-.7 0-.9.2l-.2.6Zm0 0"/>  <path id="b" d="M2.9-5.5c.6 0 1.1.2 1.4.5.3.3.5.7.5 1.3V0h-.6L4-.8c-.3.3-.5.6-.8.8h-1c-.5 0-1 0-1.3-.3C.6-.5.5-.9.5-1.5c0-.5.2-1 .5-1.2.5-.3 1-.5 2-.5h.8v-.3c.2-.5.2-.8-.2-1l-.8-.2H2l-.7.5L1-5l1-.3.9-.2Zm1 2.9h-.8c-.6 0-1 .1-1.4.3-.1.3-.3.5-.3.8 0 .3 0 .5.2.7l.7.2c.5 0 .9-.1 1.2-.4.3-.2.4-.6.4-1Zm.1 0"/>  <path id="a" d="M1 0v-7.1h4.2v.8H1.9v2.2h1c.7 0 1.3 0 1.7.1.4.3.7.6.8 1 .2.2.2.5.2.9 0 .7-.2 1.2-.6 1.6-.4.3-1 .5-2 .5Zm.9-.8h1c.8 0 1.3 0 1.5-.2.2-.3.3-.6.3-1s-.1-.9-.4-1l-1.5-.3h-1Zm0 0"/>  <path d="M1 0v-7.1h4V0Zm.4-.5h3.1v-6.1h-3Zm.1 0"/> </defs> <image xlink:href="svg/9/32_7.jpg" width="497" height="279"/> <path d="M344.4 248.4v-7.2h4.3v.8h-3.4v2.2h1.1c.7 0 1.3.1 1.7.3.4.2.6.4.8.7l.1 1c.1.8 0 1.3-.5 1.7-.4.3-1 .5-2 .5Zm1-.8h.9c.8 0 1.2-.1 1.5-.3.2-.3.4-.6.4-1 0-.5-.2-.8-.5-1-.2-.3-.7-.3-1.4-.3h-1ZM352.5 242.9c.7 0 1.1.1 1.4.4.4.3.5.8.5 1.4v3.7h-.6l-.2-.8c-.3.3-.6.4-.8.6-.2.2-.6.2-1 .2-.5 0-1 0-1.2-.3-.4-.3-.6-.7-.6-1.2 0-.6.3-1 .7-1.3.4-.3 1-.4 2-.5h.9v-.3c0-.4-.1-.7-.3-1l-.9-.1h-.7l-.8.3-.2-.6.8-.4h1Zm1 2.8h-.6c-.9.1-1.3.3-1.5.5-.4.1-.4.3-.4.7 0 .3 0 .5.3.6.1.2.4.2.7.2.4 0 .8 0 1-.3.4-.4.6-.7.6-1.2Zm2.9 2.7h-1l1.5-2.4-.6-.1a1.5 1.5 0 0 1-.5-.5l-.1-.8c0-.6.1-1 .5-1.2.3-.3.8-.4 1.4-.4h2.4v5.4h-1v-2.2h-1.1Zm.1-3.8c0 .3.1.4.5.7l.9.2h1.1v-1.8h-1.3c-.4 0-.7.1-1 .3l-.1.6Zm6.1-1.6v2.2h2.9V243h.8v5.4h-.8V246h-3v2.4h-.7V243Zm6.7 2.6-1.8-2.6h1l1.3 2 1.4-2h1l-1.9 2.6 2 2.8h-1l-1.5-2.2-1.4 2.2h-1Zm8.5.1c0 .9-.2 1.5-.7 2-.4.5-1 .7-1.8.7-.5 0-1 0-1.3-.3-.4-.1-.6-.5-.9-1-.1-.2-.3-.7-.3-1.3 0-1.1.3-1.8.7-2.1.4-.7 1-.9 1.8-.9.5.1 1 .2 1.3.4.4.2.7.6.9 1 .2.4.3.8.3 1.5Zm-4 0c-.1.6-.1 1.1.2 1.5.4.3.8.5 1.3.5.7 0 1-.2 1.2-.5.3-.4.4-.9.4-1.5 0-.7-.1-1.2-.4-1.5-.3-.4-.7-.6-1.2-.6s-1 .2-1.2.6c-.1.3-.4.8-.4 1.5Zm6.2-2.7v2.2h3V243h.8v5.4h-.8V246h-3v2.4h-.7V243Zm8.8 0v.7h-2.4v4.7h-.9V243Zm5.6 2.7c0 .9-.2 1.5-.6 2-.5.5-1 .7-1.9.7-.4 0-.9 0-1.2-.3-.4-.1-.7-.5-1-1l-.1-1.3c-.1-1.1.1-1.8.6-2.1.4-.7 1-.9 1.8-.9.5.1.9.2 1.2.4.4.2.8.6 1 1l.1 1.5Zm-4 0c0 .6.1 1.1.4 1.5.2.3.6.5 1.2.5.5 0 .9-.2 1.2-.5.2-.4.3-.9.3-1.5 0-.7-.1-1.2-.3-1.5-.3-.4-.7-.6-1.3-.6-.5 0-.9.2-1.1.6-.3.3-.4.8-.4 1.5Zm8-2.8c.6 0 1.2.2 1.6.7.4.4.6 1.1.6 2 0 1.1-.2 1.8-.6 2.2-.4.4-1 .6-1.6.6-.4 0-.8 0-1-.2l-.8-.5v3.1h-.8V243h.7l.2.7.6-.6 1-.1Zm-.2.7c-.5 0-1 .2-1.1.5-.3.3-.4.8-.4 1.4v.2c0 .6.1 1.1.3 1.5.2.4.7.5 1.2.5.4 0 .6 0 .8-.2.3-.2.4-.5.5-.8l.2-1c0-.7-.2-1.3-.4-1.6-.2-.3-.6-.5-1-.5Zm0 0" style="fill:none;stroke-width:3;stroke-linecap:butt;stroke-linejoin:round;stroke:#fff;stroke-opacity:.6;stroke-miterlimit:10" transform=" rotate(  340 372.302 245.353) "/> <g style="fill:#222;fill-opacity:1" transform=" rotate(  340 372.302 245.353) ">  <use xlink:href="#a" x="343.5" y="248.4"/>  <use xlink:href="#b" x="349.6" y="248.4"/>  <use xlink:href="#c" x="355.2" y="248.4"/>  <use xlink:href="#d" x="360.8" y="248.4"/>  <use xlink:href="#e" x="367.2" y="248.4"/>  <use xlink:href="#f" x="372.3" y="248.4"/>  <use xlink:href="#d" x="378.3" y="248.4"/>  <use xlink:href="#g" x="384.7" y="248.4"/>  <use xlink:href="#f" x="388.9" y="248.4"/>  <use xlink:href="#h" x="395" y="248.4"/> </g></svg>
